images/icons/v2/emoji-object-outline-20.svg

<svg height="20" viewBox="0 0 20 20" width="20" xmlns="http://www.w3.org/2000/svg"><path d="m14.1 2.5a6.291 6.291 0 0 0 -4.1-1.5 6.487 6.487 0 0 0 -6.5 6.5 6.773 6.773 0 0 0 1.4 4.1c1.3 1.7 2.6 2.9 2.6 4.4v1.5a1.5 1.5 0 0 0 1.5 1.5h2a1.5 1.5 0 0 0 1.5-1.5v-1.5c0-1.5 1.2-2.8 2.6-4.4a6.4 6.4 0 0 0 -1-9.1zm-3.09 15h-2v-1.5h2zm2.89-6.8a25.578 25.578 0 0 0 -2.6 3.8h-2.6a28.167 28.167 0 0 0 -2.6-3.9 4.887 4.887 0 0 1 -1.1-3.1 5 5 0 0 1 10 0 5.167 5.167 0 0 1 -1.1 3.2z"/></svg>

<svg xmlns="http://www.w3.org/2000/svg" width="20" height="20" viewBox="0 0 20 20"><title>emoji-object-outline-20</title><path d="M14.1,2.5A6.291,6.291,0,0,0,10,1,6.487,6.487,0,0,0,3.5,7.5a6.773,6.773,0,0,0,1.4,4.1c1.3,1.7,2.6,2.9,2.6,4.4v1.5A1.5,1.5,0,0,0,9,19h2a1.5,1.5,0,0,0,1.5-1.5V16c0-1.5,1.2-2.8,2.6-4.4A6.4,6.4,0,0,0,14.1,2.5Zm-3.09,15h-2V16h2Zm2.89-6.8a25.578,25.578,0,0,0-2.6,3.8H8.7a28.167,28.167,0,0,0-2.6-3.9A4.887,4.887,0,0,1,5,7.5a5,5,0,0,1,10,0A5.167,5.167,0,0,1,13.9,10.7Z"/></svg>
